X:594
T:Reel 594
M:4/4
K:Dmaj
L:1/8
D>F (3FEF GFEF|A>F (3FEF d2cd| (3Bcd AG FGFEFD| (3B,CD EF GBAG| (3FGF DB, A,B,A,C|DFDF G2FG| (3EFG FD EDB,E| (3FGA BG FGED| (3B,CB, A,B, D2d2|FEFA d2cd| (3BcB AF F2ED|CEA,E CEBE|GEBc dBAG| (3FGF  (3FGF d2dB| (3FGF Ac d2de| (3fgf ec dBce|dBBG FGEF|
